X:1
T:Clog Waltz
L:1/8
Q:120
M:3/4
K:A
d2 |: c2F GAF| c2F GAF| d2d3d| d2c2B2| c2F GAF| c2F GAF| G2B2B2| B2c2d2|
c2F GAF| c2F GAF| d2d3d|d2c2B2| c2d2c2| B2A2G2| F2A FcA| f3- f/2z/2d2 :| f3- f/2z/2F2